X:1
T:Nun will die Sonn' so hell aufgeh'n!
T:Gustav Mahler 
T:Friedrich Rückert (English words by John Bernhoff)
T:Kindertotenlieder
T:1. Nun will die Sonn' so hell aufgeh'n!
T:OpenScore (CC0)
T:OpenScore (CC0)
T:OpenScore (CC0)
T:OpenScore (CC0)
T:OpenScore (CC0)
C:Gustav Mahler
Z:Friedrich Rückert
Z:OpenScore (CC0)
%%score ( 1 2 ) { ( 3 6 8 ) | ( 4 5 7 ) }
L:1/8
Q:1/4=56
M:4/4
K:F
V:1 treble nm="Gesang\nVoice"
V:2 treble 
V:3 treble nm="Piano"
V:6 treble 
V:8 treble 
V:4 bass 
V:5 bass 
V:7 bass 
V:1
"^Langsam und schwermütig, nicht schleppend""^Lento e malincolico, ma non strascinando" z2 | z8 | %2
w: ||
w: ||
 z8 | z8 | z4 z2!p! (A2 | B6 A2 | G6 F2 | E6 F2 | E8) | z8 | z4 z2!pp! E2 | %11
w: ||Nun|will die|Sonn' so|hell auf-|geh'n,||als|
w: ||Once|more the|sun would|gild the|morn,||as|
"^mit verhaltener Stimme""^con suono smorzare" (F4 ^F3) F | (^FG) G4!<(! (^GA) | %13
w: sei _ kein|Un- * glück, kein *|
w: though _ Night's|dark- * ness, Night's *|
 (AB) (B3!<)! A)!>(! (^G=G) | (G^F!>)!!pp!dA G2{AG} F) E | (E2 D4) z2 | z8 | z8 | z8 | z8 | z8 | %21
w: Un- * glück _ die _|Nacht _ _ _ _ _ ge-|scheh'n! _||||||
w: dark- * ness _ had _|wrought _ _ _ _ _ no|harm! _||||||
 z8 | z8 | z8 | z4 z2!p! (A2 | (A2 B4) A2 | (A2 G4) F2 | E6 F2 | E6) z2 | z8 | z8 | z4 z2!p! E2 | %32
w: |||Das|Un- glück ge-|schah * nur|mir al-|lein!|||Die|
w: |||And|I all a-|lone * must|weep and|mourn!|||The|
 F4 ^F3 F | (^FG) G4 (^GA) | ((A!>!B) !>!B3 A) (^G=G) | (G^FdA G2) (FE) | (E2 D4) z2 | z8 | z8 | %39
w: Son- ne, die|Son- * ne, sie *|schei- * * * net _|all- * * * * ge- *|mein! *|||
w: sun- beams with|glad- * ness all *|o- * * * thers' *|hearts _ _ _ _ may *|charm! *|||
 z8 | z8 | z8 | z8 | z8 | z8 | z8 | z8 | z4 z2 =F2 | (E2 F2) G2 A2 | (B3 c B2) F2 | %50
w: ||||||||Du|musst * nicht die|Nacht _ _ in|
w: ||||||||O|let _ not thy|heart _ _ to|
 (E2 F2) (G2 A2) | (B3 c) B2 z2 | (A4 A3 A | (A2 ^A4) A2 | %54
w: dir _ ver- *|schrän- * ken,|musst sie ins|ew'- * ge|
w: grief _ sur- *|rend- * er,|Night but fore-|bodes * bright|
 (^A2 =B4))"^non trainando\nnicht schleppend" B2 | (c2!<(! d2!<)! !>!_e2 !>!d2 | %56
w: Licht, _ ins|ew'- * * *|
w: day, _ e-|ter- * * *|
 c2 _B2!>(! A2)!>)! G2 | (=F4 ^F3) F | (!>!A4 !>!G2 !>!_E2) | %59
w: * * * ge|Licht _ ver-|sen- * *|
w: * * * nal|light's _ bright|splend- * *|
"^Bewegter, rubato""^Più mosso, rubato" D2[Q:1/4=70] z2 z4 | z8 | z8 | z8 | z8 | %64
w: ken!|||||
w: our!|||||
 z8[Q:1/4=70][Q:1/4=69]"^.5"[Q:1/4=69][Q:1/4=68]"^.5" | %65
w: |
w: |
[Q:1/4=70] z8[Q:1/4=69]"^.8"[Q:1/4=69]"^.6"[Q:1/4=69]"^.3"[Q:1/4=69]"^.1"[Q:1/4=68]"^.9"[Q:1/4=68]"^.7"[Q:1/4=68]"^.5" | %66
w: |
w: |
[Q:1/4=68]"^.3" z8[Q:1/4=68][Q:1/4=67]"^.8"[Q:1/4=67]"^.6"[Q:1/4=67]"^.4"[Q:1/4=67]"^.2"[Q:1/4=66]"^.9"[Q:1/4=66]"^.7" | %67
w: |
w: |
[Q:1/4=66]"^.5" z4[Q:1/4=65]"^.6" z2!p![Q:1/4=65]"^.2" A2[Q:1/4=66]"^.3"[Q:1/4=66]"^.1"[Q:1/4=65]"^.8"[Q:1/4=65]"^.4"[Q:1/4=65] | %68
w: Ein|
w: One|
"^ritornare al Tempo I.\nzum Tempo I. zurückkehrend"[Q:1/4=64]"^.8" (A[Q:1/4=64]"^.5"B)[Q:1/4=64]"^.3" B4[Q:1/4=63][Q:1/4=63]"^.4" A2[Q:1/4=64]"^.1"[Q:1/4=63]"^.2" | %69
w: Lämp- * lein ver-|
w: ti- ny lamp went|
[Q:1/4=63] (A[Q:1/4=62]"^.8"!>!G-[Q:1/4=62]"^.6" !>!G4)[Q:1/4=61]"^.7" F2[Q:1/4=62]"^.3"[Q:1/4=62]"^.1"[Q:1/4=61]"^.5" | %70
w: losch _ _ in|
w: out: _ _ my|
[Q:1/4=61]"^.3" E6[Q:1/4=59]"^.9" F2[Q:1/4=60]"^.8"[Q:1/4=60]"^.6"[Q:1/4=60]"^.4"[Q:1/4=59]"^.7" | %71
w: mei- nem|
w: soul's de-|
[Q:1/4=59]"^.5" E8[Q:1/4=59]"^.3"[Q:1/4=59]"^.1"[Q:1/4=58]"^.8"[Q:1/4=58]"^.6"[Q:1/4=58]"^.4"[Q:1/4=58]"^.2"[Q:1/4=58] | %72
w: Zelt!|
w: light!|
[Q:1/4=57]"^.8" z8[Q:1/4=57]"^.5"[Q:1/4=57]"^.3"[Q:1/4=57]"^.1"[Q:1/4=56]"^.9"[Q:1/4=56]"^.4" | %73
w: |
w: |
"^Tempo I"[Q:1/4=56] z8 |"^con agitazione\nmit Erschütterung"!mf! (^F2 G2) z4 | %75
w: |Heil! _|
w: |Hail! _|
!p! (A2 B3 A) ^G =G | (G^Fd) A (G2{AG} F) E | (E2 D4) z2 | z8 | z4 z2 (!>!_BA) | %80
w: Heil _ _ sei dem|Freu- * * den- licht _ der|Welt, _||dem *|
w: Hail _ _ to the|light _ _ that glads _ our|sight, _||the *|
 (G2 =F3!<(! A)!<)!!>(! (G!>)!_E) | (D4 =E3)!<(! F!<)! |!>(! F8!>)! | z8 | !fermata!z8 |] %85
w: Freu- * * den- *|licht _ der|Welt.|||
w: light _ _ that *|glads _ our|sight!|||
V:2
 x2 | x8 | x8 | x8 | x8 | x8 | x8 | x8 | x8 | x8 | x8 | x8 | x8 | x8 | x8 | x8 | x8 | x8 | x8 | %19
 x8 | x8 | x8 | x8 | x8 | x8 | x8 | x8 | x8 | x8 | x8 | x8 | x8 | x8 | x8 | x8 | x8 | x8 | x8 | %38
 x8 | x8 | x8 | x8 | x8 | x8 | x8 | x8 | x8 | x8 | x8 | x8 | x8 | x8 | x8 | x8 | x8 | x8 | x8 | %57
 x8 | x8 | x8 | x8 | x8 | x8 | x8 | x8 | x8 | x8 | x8 | A B x2"^.9" x4 | x8 | x8 | x8 | x8 | x8 | %74
 x8 | x8 | x8 | x8 | x8 | x8 | x8 | x8 | x2 x2 x2 x2 | x8 | x8 |] %85
V:3
!p! (c2 | d2 ^G2 A2 =B2 | c2 ^F2 G2 A_B | A2 d2 B2 AG | F2 G2 A4) | z2 (^C2 D4) | z2 (^C2 (D4) | %7
 (D8) | D6) (!>!A2 | !>!B2 A2 G2 F2 | E3 F E4) | (F4 ^F4) | ((^F2 G4) ^GA) | (A2 B3 A^G=G) | %14
 (G^FdA G2 FE) | (E2 D4)[I:staff +1] (A,"^ausdrucksvoll""^espressivo"[I:staff -1]^F) | %16
 (^F2 E4) (GF) | (^FEGF A!<(!G!<)!!>!_B!>!A | G2) (=F3 AG_E) | (D6 !>!=E!>!F) | %20
 z4"^l.H." d'2 d'2!pp! | x4 x2 (!>!B2 | c2 ^F2 G2 AB) |!pp! (A2 d2 B2 AG | F2 G2 A4-) | %25
 (A2 B4) A2 | (A2 G4) F2 | z4 z2 (A2 |"^espr." B2 A2 G2 F2) | (E3 F E2) (A2 | c2 BA) (A2 GF | %31
 [DE]8) | (F4 ^F4) | ((^F2 G4) ^GA) | (A2 B3 A^G=G) | (G^FdA G2{AG} FE) | (E2 D4) x2 | %37
 (E2 D4)!pp![I:staff +1] (!>!=A,[I:staff -1]^F) | (E2 D4) (DE) | (D^C!>!A=C) (C=B,!>!G_B,) | %40
 z4 z2"^più usemento\nheftiger" (!>!=B2 | !>!c2 ^F2 G2 A!<(!B)!<)! | %42
!>(! (!>!d2!>)! ^G2 A2 =B!<(!c)!<)! | (!>!_ed)(d!<(!e)!<)!!>(! (!>!e!>)!^c)(cd) | %44
 z2!pp! (^c'2 d'4) | z2 (^c'2 d'4) | z2 (^c2 d4-) | [Bd]6"_espr." x2 | b2 a2 g2 =f2 | e3 f e2 (a2 | %50
 c'2 ba) (a2 gf | e6) (e2 |!pp!"_molto espressivo\nsehr ausdrucksvoll" =f4 A3 f | e2 d4) (^Fd | %54
 ^c2 =B4) (^Fa) | (g2 ^fg abc'b | ag^fg) (=f_ede) | (_e2 d3 ^cdA) | (=c_BAB cBgB) | %59
"^Mit leidenschaftlichem Ausdruck" (B"^Con espressione appassionata"A^c!<(!d!<)!!>(! =f!>)!_ede) | %60
"^passionata\n   druck" (_e!<(!d!<)!!>(!b!>)!^c) (c!<(!=c!<)!!>(!=a!>)!c) | %61
 (c!<(!=B^fg _ag!<)!fg) | (g!<(!^f!<)!!>(!!>!_d'!>)!=f) (f!<(!e!<)!!>(!!>!c'!>)!_e) | %63
 (_ed!<(!^c'd'!<)!!f! _e'd'c'd') | (d'^g)(ga) (a=b)(b"_dim."c') | (c'^f)(fg) (ga)!>(!(a!>)!_b) | %66
 (ad')(d'b) (ba)(ag) | (gf)(fg) (ga)!pp!!pp! a2 | z2 (^CD) D4 | z2 (^CD) D4- | D6 (A=c) | %71
 (!>!c B2 A) (!>!A G2 F) | (FE) E4!pp! (E2 | F4 ^F3) F | (^FG) (G4 ^GA) | (AB B3 A^G=G) | %76
 (G^FdA G2 FE) | (E2 D4)[I:staff +1] (A,"^espr."[I:staff -1]^F) | (^F2 E4) (GF) | %79
!<(! (^FEGF A!<)!G!>(!!>!_B!>)!A) | (G2!<(! =F3!<)!!>(! A!>)!G_E) | (D4 =E3 F) | z4!pp! d'2 d'2 | %83
 z4!ppp! d'4 | !fermata!d'8 |] %85
V:4
 z2 | (F4 E2 D2 | _E4 D2 CB, | A,2 D,2 G,2 D,2 | D6) (^C,2 | D,6) z2 | D,6 z2 | z2 (A,2 (B,4) | %8
 B,8) | z8 | (G,6 ^G,2) | %11
!pp![I:staff -1] (D[I:staff +1]A,[I:staff -1]D[I:staff +1]A,[I:staff -1] D[I:staff +1]A,[I:staff -1]D[I:staff +1]A,) | %12
[I:staff -1] (^D[I:staff +1]A,[I:staff -1]E[I:staff +1]A,[I:staff -1] E[I:staff +1]A,[I:staff -1]^E[I:staff +1]A,) | %13
[I:staff -1] (^F[I:staff +1]A,[I:staff -1]G[I:staff +1]A,[I:staff -1] ^C[I:staff +1]A,[I:staff -1]E[I:staff +1]A,) | %14
[I:staff -1] (D[I:staff +1]A,[I:staff -1]F[I:staff +1]A, B,A,[I:staff -1]^C[I:staff +1]A,) | %15
 G,A,^F,(A, A,)A, x2 | (_B,6 A,2) | (_B,2 =B,2 C2 ^C2) | (D,6 G,,2) | ([F,A,]4 [G,B,]2 [^G,=B,]2) | %20
 z (A,[I:staff -1]D[I:staff +1]A,[I:staff -1] D[I:staff +1]A,[I:staff -1]D[I:staff +1]A,) | %21
 z (A,[I:staff -1]D[I:staff +1]A,[I:staff -1] D[I:staff +1]A,[I:staff -1]D[I:staff +1]A,) | z8 | %23
[K:treble] (G2 F4 _E2- | E2 D4 ^C2) |[K:bass] z2 (^C,2 D,4) | z2 (^C,2 D,4) | z2 (A,2 B,2) (F,2 | %28
 G,4) z2 (!>!A,2 |"_espr." !>!B,2 A,2 G,2 F,2 | E,3 F, E,2) (!>!A,2 | !>!C2 B,A, A,2 G,^G,) | %32
[I:staff -1] (D[I:staff +1]A,[I:staff -1]D[I:staff +1]A,[I:staff -1] D[I:staff +1]A,[I:staff -1]D[I:staff +1]A,) | %33
[I:staff -1] (^D[I:staff +1]A,[I:staff -1]E[I:staff +1]A,[I:staff -1] E[I:staff +1]A,[I:staff -1]^E[I:staff +1]A,) | %34
[I:staff -1] (^F[I:staff +1]A,[I:staff -1]G[I:staff +1]A,[I:staff -1] G[I:staff +1]A,[I:staff -1]^C[I:staff +1]A,) | %35
[I:staff -1] (D[I:staff +1] A,2 A, B,A,^CA,) | (G,A,^F,(A, A,))A, (!>!A,"^espr."[I:staff -1]^F) | %37
[I:staff +1] [^A,,^F,]8 | =F,6 F, x | [D,,G,,] D,,3- [D,,-G,,]4 | [D,,-D,]8 | [_E,,G,]4 D,,4 | %42
 (=B,4 C4) |[K:treble] z4 z2!p! (!>![A,A]2 | !>![B,B]6 !>![A,A]2 | !>![G,G]6 !>![F,F]2 | %46
 !>![E,E]6 !>![F,F]2 | !>![E,E]8) | z8 | [Bd]8 | z8 | [Bd]8 |[K:bass] (D,,A,,D,E, F,A,DA,,) | %53
 (D,,A,,D,E, ^F,_B,DF,) | (D,,^F,,D,E, ^F,=B,D^F) | (D,,A,,D,=E, ^F,C[I:staff -1]_Ec) | %56
[I:staff +1] [G,B,]8 | ([A,,,A,,]D,A,D[I:staff -1] (^F4) |[I:staff +1] [A,G]8) | %59
 (D,,!<(!A,,=F,A,,) (D,,A,,^F,!<)!A,,) | (D,,B,,G,B,!>(! A,!>)!_A,_E,_A,,) | %61
 (G,,!<(!D,,D,_B,[K:treble] _Ec_A!<)!E) |!>(! D=A,!>)!!<(!_A,_D!<)! _A!>(!G_E!>)!G, | %63
[K:bass] (D,,=A,,D,!<(!A,!<)! (!>!D4) | D8) | D8 | x8 | x8 | D,4 z2 (^C,D,) | D,4 z2 (A,B,) | %70
 B,2 (^F,G,) G,2"^espr." (^C,D,) | (D,2 G,,4 A,,B,,) | (B,,3 C, B,,4) | %73
[I:staff -1] (D[I:staff +1]A,[I:staff -1]D[I:staff +1]A,[I:staff -1] D[I:staff +1]A,[I:staff -1]D[I:staff +1]A,) | %74
[I:staff -1] (^D[I:staff +1]A,[I:staff -1]E[I:staff +1]A,[I:staff -1] E[I:staff +1]A,[I:staff -1]^E[I:staff +1]A,) | %75
[I:staff -1] (^F[I:staff +1]A,[I:staff -1]G[I:staff +1]A,[I:staff -1] G[I:staff +1]A,[I:staff -1]^C[I:staff +1]A,) | %76
[I:staff -1] (D[I:staff +1]A,[I:staff -1]F[I:staff +1]A, B,A,[I:staff -1]^C[I:staff +1]A,) | %77
 (G,A,^F,A,- A,2) x2 | (_B,6 A,2) | (B,2 =B,2 C2 ^C2) | (A,[I:staff -1]D)DD DD[I:staff +1] B,2 | %81
 (F,A,!<(!^F,A, G,B,^G,!<)!=B,) | %82
[I:staff -1] (D[I:staff +1]A,[I:staff -1]D[I:staff +1]A,[I:staff -1] D[I:staff +1]A,[I:staff -1]D[I:staff +1]A, | %83
[I:staff -1] D[I:staff +1]A,[I:staff -1]D[I:staff +1]A,[I:staff -1] D2[I:staff +1] A,2) | %84
 !fermata!z8 |] %85
V:5
 x2 | x8 | x8 | x8 | x8 | x8 | x8 | x8 | z2 (^F,2 G,4) | x8 | x8 | x8 | x8 | x8 | x8 | %15
 z2 (D,,4 A,,2) | G,8 | (G,A,,G,A,, G,A,,G,A,,) | x8 | A,,8 | D,,8 | D,,8 | x8 |[K:treble] x8 | %24
 x8 |[K:bass] x8 | x8 | x8 | x8 | x8 | x8 | x8 | D,,8 | x8 | x8 | x8 | [D,,A,,]6 z2 | %37
 z D,,2 D,,2 D,,2 D,, | =A,,6 ^G,,2- | x8 | F,,6 =E,,2 | D,,8 | D,8 |[K:treble] x8 | x8 | x8 | x8 | %47
 x8 | x8 | x8 | x8 | x8 |[K:bass] x8 | x8 | x8 | x8 | x8 | x8 | x8 | x8 | x8 | x4[K:treble] x4 | %62
 x8 |[K:bass] x8 | x8 | x8 | x8 | x8 | x8 | x8 | x8 | x8 | x8 | [A,,,A,,]8 | x8 | x8 | x6 (A,,2 | %77
 D,6) A,,2- | G,8 | [A,,G,]8 | (D,6 G,,2) | [A,,,A,,]8 | [D,,,D,,]8 | [D,,,D,,]8 | x8 |] %85
V:6
 x2 | x8 | x8 | x8 | x8 | x8 | x8 | x8 | x8 | x8 | D8 | x8 | x8 | x8 | x8 | x8 | x8 | x8 | %18
[I:staff +1] (A,[I:staff -1]D)DD (D2[I:staff +1] B,2) | x8 |[I:staff -1] F8 | F8 | (_E4 D2 CB,) | %23
 x8 | x8 | D6 (^C2 | D6) ^C2 | [DE]8- | [DE]8 | D8- | D8 | x8 | x8 | x8 | x8 | x8 | x8 | x8 | x8 | %39
[I:staff +1] (E,D,,=G,,-_E, D,4-) |[I:staff -1] B,2 A,4[I:staff +1] ^G,2 | x8 | %42
[I:staff -1] (F4 =E4) | z2 (=B2 =c4) | d6 (=c2 | B6) (A2 | G6) A2 | z2 (^F2 G2) !>!a2 | x8 | x8 | %50
 x8 | x8 | x8 | x8 | x8 | x8 | _E8 | x8 | x8 | x8 | x8 | x8 | x8 | z4 z2 (!>!=e2 | %64
 !>!f2 !>!=B2 !>!c2 d_e) | (_e2 A2 B2 AG) | (G2 F4 _E2-) | E2 D4[I:staff +1] (^C,D,) | x8 | x8 | %70
 x8 |[I:staff -1] D8- | D6 x2 | x8 | x8 | x8 | x8 | x8 | x8 | x8 | x8 | x8 | F8 | F8 | z8 |] %85
V:7
 x2 | x8 | x8 | x8 | x8 | x8 | x8 | x8 | x8 | x8 | x8 | x8 | x8 | x8 | x8 | x8 | %16
 (^C,3 A,,2) A,,2 A,, | x8 | x8 | x8 | x8 | x8 | x8 |[K:treble] x8 | x8 |[K:bass] x8 | x8 | x8 | %28
 x8 | x8 | x8 | x8 | x8 | x8 | x8 | x8 | x8 | x8 | z D,,2 D,,2 D,,2 D,,- | x8 | x8 | x8 | x8 | %43
[K:treble] x8 | x8 | x8 | x8 | x8 | x8 | x8 | x8 | x8 |[K:bass] x8 | x8 | x8 | x8 | x8 | x8 | x8 | %59
 x8 | x8 | x4[K:treble] x4 | x8 |[K:bass] x8 | x8 | x8 | x8 | x8 | x8 | x8 | x8 | x8 | x8 | x8 | %74
 x8 | x8 | x8 | x8 | ^C,6 A,,2- | x8 | x8 | x8 | x8 | x8 | x8 |] %85
V:8
 x2 | x8 | x8 | x8 | x8 | x8 | x8 | x8 | x8 | x8 | x8 | x8 | x8 | x8 | x8 | x8 | x8 | x8 | x8 | %19
 x8 | x8 | z4 d'2 d'2 | x8 | x8 | x8 | x8 | x8 | x8 | x8 | x8 | x8 | x8 | x8 | x8 | x8 | x8 | x8 | %37
 x8 | x8 | x8 | x8 | x8 | x8 | x8 | x8 | x8 | x8 | x8 | x8 | x8 | x8 | x8 | x8 | x8 | x8 | x8 | %56
 x8 | x8 | x8 | x8 | x8 | x8 | x8 | x8 | x8 | x8 | x8 | x8 | x8 | x8 | x8 | x8 | x8 | x8 | x8 | %75
 x8 | x8 | x8 | x8 | x8 | x8 | x8 | x8 | x8 | x8 |] %85

